static/assets/images/exchanges/cryptocom.svg

<svg width="287" height="256" viewBox="0 0 287 256" fill="none" xmlns="http://www.w3.org/2000/svg">
<path fill-rule="evenodd" clip-rule="evenodd" d="M218.576 255.617H191.51L159.135 226.214V211.129L192.66 179.461V129.318L236.465 101.041L286.368 138.376L218.576 255.617ZM106.572 176.454L111.532 129.318L95.1411 87.0946H191.905L175.909 129.318L180.474 176.454H106.572ZM128.666 226.214L96.2913 256H68.8534L0.677734 138.376L50.9528 101.425L95.1411 129.318V179.461L128.666 211.129V226.214ZM68.4819 0H218.193L236.093 75.4125H50.9647L68.4819 0Z" fill="white"/>
</svg>

<svg xmlns="http://www.w3.org/2000/svg" fill="none" viewBox="0 0 287 256"><path fill="#fff" fill-rule="evenodd" d="M218.576 255.617H191.51l-32.375-29.403v-15.085l33.525-31.668v-50.143l43.805-28.277 49.903 37.335zm-112.004-79.163 4.96-47.136-16.39-42.223h96.763l-15.996 42.223 4.565 47.136zm22.094 49.76L96.291 256H68.853L.678 138.376l50.275-36.951 44.188 27.893v50.143l33.525 31.668zM68.482 0h149.711l17.9 75.413H50.965z" clip-rule="evenodd"/></svg>
